assets/features/channel/southeast-asia1/SCB.svg

<svg width="80" height="80" viewBox="0 0 80 80" fill="none" xmlns="http://www.w3.org/2000/svg">
<rect width="80" height="80" rx="8" fill="#462279"/>
<path d="M60 54.7663L54.5416 33.3058L40 20L25.4478 33.2L20 54.6606L30.3688 59.6H38.6091V52.1962C38.6091 52.1962 23.4141 60.2452 27.3762 42.2115C28.6617 36.2038 35.7218 28.2606 39.6733 26.0077C39.7787 25.9019 39.8841 25.9019 40 25.7962C43.9515 27.7317 51.3382 35.9923 52.7292 42.2115C56.6807 60.2452 41.4963 52.1962 41.4963 52.1962V59.6H49.726L60 54.7663Z" fill="#FEAC00"/>
</svg>

<svg xmlns="http://www.w3.org/2000/svg" width="80" height="80" fill="none" viewBox="0 0 80 80"><rect width="80" height="80" fill="#462279" rx="8"/><path fill="#feac00" d="m60 54.766-5.458-21.46L40 20 25.448 33.2 20 54.66l10.369 4.94h8.24v-7.404s-15.195 8.05-11.233-9.984c1.286-6.008 8.346-13.951 12.297-16.204.106-.106.211-.106.327-.212 3.952 1.936 11.338 10.196 12.73 16.416 3.95 18.033-11.234 9.984-11.234 9.984V59.6h8.23z"/></svg>
